src/img/fav.svg

<svg width="32" height="34" viewBox="0 0 32 34" fill="none" xmlns="http://www.w3.org/2000/svg">
<path d="M31.2291 11.2308C30.5455 10.8615 29.8327 10.5538 29.0909 10.2923V28.8C27.4327 28.1692 25.7309 27.8462 24 27.8462C21.2364 27.8462 18.5018 28.6769 16 30.2769V11.6615C13.6436 10.2308 10.9236 9.38462 8 9.38462C5.39636 9.38462 2.93818 10.0615 0.770909 11.2308C0.290909 11.4769 0 12.0154 0 12.5846V31.1692C0 32.0615 0.683636 32.6923 1.45455 32.6923C1.68727 32.6923 1.92 32.6308 2.15273 32.5077C3.91273 31.5385 5.89091 30.9231 8 30.9231C11.0109 30.9231 13.7891 32.1846 16 34C18.2109 32.1846 20.9891 30.9231 24 30.9231C26.1091 30.9231 28.0873 31.5385 29.8473 32.5231C30.08 32.6462 30.3127 32.7077 30.5455 32.7077C31.3018 32.7077 32 32.0769 32 31.1846V12.5846C32 12.0154 31.7091 11.4769 31.2291 11.2308ZM13.0909 28.8C11.4327 28.1692 9.73091 27.8462 8 27.8462C6.26909 27.8462 4.56727 28.1692 2.90909 28.8V13.5538C4.52364 12.8308 6.22545 12.4615 8 12.4615C9.74545 12.4615 11.4764 12.8462 13.0909 13.5692V28.8ZM26.1818 4L18.9091 11.6923V26.3077L26.1818 19.3846V4Z" fill="#4F2EE8"/>
</svg>

<svg xmlns="http://www.w3.org/2000/svg" width="32" height="34" fill="none">
  <path fill="#4F2EE8"
    d="M31.23 11.23a14.908 14.908 0 0 0-2.14-.938V28.8a14.236 14.236 0 0 0-5.09-.954c-2.764 0-5.498.83-8 2.43V11.663c-2.356-1.431-5.076-2.277-8-2.277-2.604 0-5.062.677-7.23 1.846-.48.246-.77.784-.77 1.354v18.584c0 .893.684 1.523 1.455 1.523.232 0 .465-.061.698-.184 1.76-.97 3.738-1.585 5.847-1.585 3.01 0 5.79 1.262 8 3.077 2.21-1.815 4.99-3.077 8-3.077 2.11 0 4.087.616 5.847 1.6.233.123.466.185.698.185.757 0 1.455-.631 1.455-1.523v-18.6c0-.57-.29-1.108-.77-1.354ZM13.09 28.8A14.236 14.236 0 0 0 8 27.846c-1.73 0-3.433.323-5.09.954V13.554A12.343 12.343 0 0 1 8 12.46c1.745 0 3.476.385 5.09 1.108V28.8ZM26.183 4l-7.273 7.692v14.616l7.273-6.923V4Z" />
</svg>
